src/assets/outline/Flash1.svg

<svg width="24" height="24" viewBox="0 0 24 24"  xmlns="http://www.w3.org/2000/svg">
<path d="M9.99008 22.7496C9.79008 22.7496 9.63008 22.7096 9.51008 22.6596C9.11008 22.5096 8.43008 22.0196 8.43008 20.4696V14.0196H6.09008C4.75008 14.0196 4.27008 13.3896 4.10008 13.0196C3.93008 12.6396 3.78008 11.8696 4.66008 10.8596L12.2301 2.25964C13.2501 1.09964 14.0801 1.17964 14.4801 1.32964C14.8801 1.47964 15.5601 1.96964 15.5601 3.51964V9.96964H17.9001C19.2401 9.96964 19.7201 10.5996 19.8901 10.9696C20.0601 11.3496 20.2101 12.1196 19.3301 13.1296L11.7601 21.7296C11.0501 22.5396 10.4301 22.7496 9.99008 22.7496ZM13.9301 2.73964C13.9001 2.77964 13.6901 2.87964 13.3601 3.25964L5.79008 11.8596C5.51008 12.1796 5.47008 12.3796 5.47008 12.4196C5.49008 12.4296 5.67008 12.5296 6.09008 12.5296H9.18008C9.59008 12.5296 9.93008 12.8696 9.93008 13.2796V20.4796C9.93008 20.9796 10.0201 21.1996 10.0601 21.2596C10.0901 21.2196 10.3001 21.1196 10.6301 20.7396L18.2001 12.1396C18.4801 11.8196 18.5201 11.6196 18.5201 11.5796C18.5001 11.5696 18.3201 11.4696 17.9001 11.4696H14.8101C14.4001 11.4696 14.0601 11.1296 14.0601 10.7196V3.51964C14.0701 3.01964 13.9701 2.80964 13.9301 2.73964Z" />
</svg>

<?xml version="1.0" encoding="UTF-8"?>
<svg width="24" height="24" viewBox="0 0 24 24" xmlns="http://www.w3.org/2000/svg">
 <path d="m9.9901 22.75c-0.2 0-0.36-0.04-0.48-0.09-0.4-0.15-1.08-0.64-1.08-2.19v-6.45h-2.34c-1.34 0-1.82-0.63-1.99-1-0.17-0.38-0.32-1.15 0.56-2.16l7.57-8.6c1.02-1.16 1.85-1.08 2.25-0.93s1.08 0.64 1.08 2.19v6.45h2.34c1.34 0 1.82 0.62996 1.99 0.99996 0.17 0.38 0.32 1.15-0.56 2.16l-7.57 8.6c-0.71 0.81-1.33 1.02-1.77 1.02zm3.94-20.01c-0.03 0.04-0.24 0.14-0.57 0.52l-7.57 8.6c-0.28 0.32-0.32 0.52-0.32 0.56 0.02 0.01 0.2 0.11 0.62 0.11h3.09c0.41 0 0.75 0.34 0.75 0.75v7.2c0 0.5 0.09002 0.72 0.13002 0.78 0.03-0.04 0.24-0.14 0.57-0.52l7.57-8.6c0.28-0.32 0.32-0.52 0.32-0.56-0.02-0.01-0.2-0.11-0.62-0.11h-3.09c-0.41 0-0.75-0.34-0.75-0.75v-7.2c0.01-0.5-0.09-0.71-0.13-0.78z"/>
</svg>
